X: 1311
T: the Happy Days of Youth   #2
R: reel
%S: s:2 b:10(5+5)
O: F.O'Neill
B: O'Neill's 1850 #1311
Z: Trish O'Neil
Z: Compacted via repeat and multiple endings by JC
M: C|
L: 1/8
K: G
"^A"\
|: G2Bde2dB | (GA)BG (AG)EF \
|  G2Bde2dB | (cA)BG (EG)HG2 \
"^B"\
:: (f<a)ag (fd)de |
| fdag (fd)d2 |\
[1 (f<a)ag (fd)df | edef gfed :|\
[2 bgaf gfef | dfaf gedB |]
